X: 3
T: Here Comes the Sun (3:09) - Theorbo
C: The Beatles
Z: Digero of Landroval
M: 4/4
Q: 127
K: C maj

% Bar 1
z8  |  z8  |  z8  |  z8  |  z8  |  z8  |  z8  |  z8  |  z8  |  z8  |  
% Bar 11
z8  |  z8  |  z8  |  +mp+ ^c3 +f+ =c3 +mf+ ^A2-  |  [^A3/2z] +mp+ ^G5/2 z/ ^D +mf+ ^F A F  |  
+mp+ ^G,3 ^G2 G2 G  |  z3 ^G/ z3/2 G3/2 z/ +p+ G  |  +mp+ ^C5/2 C2 z/ +p+ C2 +mp+ C  |  
+mf+ ^D3 D3/2 z/ D F G  |  +mp+ ^G5/2 z/ +mf+ G3/2 z/ +mp+ G3/2 z/ G/ z/  |  
% Bar 21
^G2 z [G5/2z2] =G F +mf+ C  |  ^C5/2 z/ C2 +mp+ C3/2 +pp+ C3/2  |  +mf+ ^D3 D2 D F G  |  
^G5/2 z/ +mp+ G3/2 z/ G2 +mf+ ^D  |  ^G5/2 z/ G2 +mp+ G2 +mf+ G  |  
^C3 +mp+ C2 +p+ C2 +mp+ C  |  +mf+ ^A,3 +mp+ A,2 A,2 +pp+ A,  |  
+mf+ ^G,9/2 z/ G,3/2 z/ +mp+ G,  |  +mf+ ^C3 =C3 ^A,2-  |  
^A, +mp+ ^G,5/2 z/ +p+ ^D, +mp+ =G, A, +mf+ G,  |  
% Bar 31
^G5 G3/2 z/ G  |  +f+ ^D3 +mf+ D3/2 z/ D3/2 z/ D  |  +mp+ ^G,3 ^G2 G2 G  |  
z3 ^G/ z3/2 G3/2 z/ +p+ G  |  +mp+ ^C5/2 C2 z/ +p+ C2 +mp+ C  |  
+mf+ ^D3 D3/2 z/ D F G  |  +mp+ ^G5/2 z/ +mf+ G3/2 z/ +mp+ G3/2 z/ G/ z/  |  
^G2 z [G5/2z2] =G F +mf+ C  |  ^C5/2 z/ C2 +mp+ C3/2 +pp+ C3/2  |  +mf+ ^D3 D2 D F G  |  
% Bar 41
^G5/2 z/ +mp+ G3/2 z/ G2 +mf+ ^D  |  ^G5/2 z/ G2 +mp+ G2 +mf+ G  |  
^C3 +mp+ C2 +p+ C2 +mp+ C  |  +mf+ ^A,3 +mp+ A,2 A,2 +pp+ A,  |  
+mf+ ^G,9/2 z/ G,3/2 z/ +mp+ G,  |  +mf+ ^C3 =C3 ^A,2-  |  
^A, +mp+ ^G,5/2 z/ +p+ ^D, +mp+ =G, A, +mf+ G,  |  ^G5 G3/2 z/ G  |  
+f+ ^D3/2 z/ D z4 +mp+ B-  |  B2 +mf+ ^F3 =F3  |  
% Bar 51
+mp+ ^C2 +mf+ ^G3/2 z/ G z G3/2 z/  |  ^G3/2 z/ ^D z D3/2 z/ D +mp+ =G  |  
+mf+ [^A3/2z] +mp+ B3 +mf+ ^F3 =F-  |  F2 +mp+ ^C2 +mf+ ^G3/2 z/ G z  |  
^G3/2 z/ G3/2 z/ ^D z D3/2 z/  |  [^D3/2z] +pp+ G +mf+ ^A +mp+ B3 +mf+ ^F2-  |  
^F =F3 +mp+ ^C2 +mf+ ^G3/2 z/  |  ^G z G3/2 z/ G3/2 z/ ^D z  |  
^D3/2 z/ [D3/2z] +mp+ G +mf+ ^A +mp+ B3  |  +mf+ ^F3 =F3 +mp+ ^C2  |  
% Bar 61
+mf+ ^G3/2 z/ G z G3/2 z/ G3/2 z/  |  ^D z D3/2 z/ D G ^A +mp+ B-  |  B2 +mf+ ^F3 =F3  |  
+mp+ ^C2 +mf+ ^G3/2 z/ G z G3/2 z/  |  ^G3/2 z/ ^D z D3/2 z/ [D3/2z] +mp+ =G  |  
+mf+ [^A3/2z] +mp+ B3 +mf+ ^F3 =F-  |  F2 +mp+ ^C2 +mf+ ^G3/2 z/ G z  |  
^G3/2 z/ G3/2 z/ ^D D +mp+ D +f+ D  |  
+mf+ ^D +f+ D +mf+ D D +mp+ D +mf+ D +f+ D +mf+ D  |  ^D D D +f+ D +mf+ D D D2  |  
% Bar 71
+f+ ^D +mf+ D +f+ D/ z/ D/ z/ D +mf+ D D D  |  
+f+ ^D +mf+ D/ +f+ D z3/2 +mp+ ^G,3 ^G-  |  ^G G2 G z3 G/ z/  |  
z ^G3/2 z/ +p+ G +mp+ ^C5/2 C3/2-  |  ^C/ z/ +p+ C2 +mp+ C +mf+ ^D3 D-  |  
^D/ z/ D F G +mp+ ^G5/2 z/ +mf+ G-  |  ^G/ z/ +mp+ G3/2 z/ G/ z/ G2 z G-  |  
[^G3/2z] =G F +mf+ C ^C5/2 z/ C-  |  ^C +mp+ C3/2 +pp+ C3/2 +mf+ ^D3 D-  |  
^D D F G ^G5/2 z/ +mp+ G-  |  
% Bar 81
^G/ z/ G2 +mf+ ^D G5/2 z/ G-  |  ^G +mp+ G2 +mf+ G ^C3 +mp+ C-  |  
^C +p+ C2 +mp+ C +mf+ ^A,3 +mp+ A,-  |  ^A, A,2 +pp+ A, +mf+ ^G,4-  |  
^G,/ z/ G,3/2 z/ +mp+ G, +mf+ ^C3 =C-  |  C2 ^A,3 +mp+ ^G,5/2 z/  |  
+p+ ^D, +mp+ G, ^A, +mf+ G, ^G5/2 z/ +mp+ G-  |  ^G/ z/ G2 +mf+ ^D G5/2 z/ G-  |  
^G +mp+ G2 +mf+ G ^C3 +mp+ C-  |  ^C +p+ C2 +mp+ C +mf+ ^A,3 +mp+ A,-  |  
% Bar 91
^A, A,2 +pp+ A, +mf+ ^G,4-  |  ^G,/ z/ G,3/2 z/ +mp+ G, +mf+ ^C3 =C-  |  
C2 ^A,3 +mp+ ^G,5/2 z/  |  +p+ ^D, +mp+ G, ^A, +mf+ G, ^G,4-  |  
^G,/ z/ G,3/2 z/ +mp+ G, +mf+ ^C3 =C-  |  C2 ^A,3 +mp+ ^G,5/2 z/  |  
+p+ ^D, +mp+ G, ^A, +mf+ G,3/2 z7/2  |  z8  |  z8  |  z8  |  z8  |]

